icons/op-flag-24.svg

<svg width="24" height="24" viewBox="0 0 24 24" fill="none" xmlns="http://www.w3.org/2000/svg">
<path d="M15.8278 5.22335C15.8278 5.22335 13.1613 6.45616 10.4948 5.56237C7.5774 4.5453 6.29122 4.94596 5.03641 6.45616C4.81682 6.33288 4.56586 6.30206 4.34627 6.45616C4.0012 6.64108 3.90708 7.07256 4.09531 7.38077L11.185 18.6918C11.3105 18.8767 11.53 19 11.781 19C11.9065 19 12.032 18.9692 12.1261 18.9076C12.4712 18.6918 12.5653 18.2911 12.377 17.9521L9.20865 12.9284C10.4635 11.449 11.781 11.0484 14.6671 12.0346C17.3335 12.9592 20 11.6956 20 11.6956L15.8278 5.22335Z" fill="black"/>
</svg>

<svg xmlns="http://www.w3.org/2000/svg" width="24" height="24" viewBox="0 0 24 24"><path d="M15.828 5.223s-2.667 1.233-5.333.339c-2.918-1.017-4.204-.616-5.459.894-.219-.123-.47-.154-.69 0a.663.663 0 0 0-.251.925l7.09 11.311a.716.716 0 0 0 .596.308.647.647 0 0 0 .345-.092.698.698 0 0 0 .251-.956l-3.168-5.024c1.254-1.479 2.572-1.88 5.458-.893 2.667.924 5.333-.339 5.333-.339l-4.172-6.473Z"/></svg>
